X:1
T:Frühlingslied
T:Nach Felix Mendelssohn-Bartoldy. 1845 (Op. 71)  - Mehrstimmig von Friedrich Erk
T:Karl Klingemann
T:Frühlingslied
T:CPDL - Creative Commons Attribution Non Commercial 3.0
T:CPDL - Creative Commons Attribution Non Commercial 3.0
C:Felix Mendelssohn-Bartoldy
Z:Karl Klingemann
Z:CPDL - Creative Commons Attribution Non Commercial 3.0
%%score [ ( 1 2 ) ( 3 4 ) ]
L:1/8
Q:1/4=96
M:3/4
K:G
V:1 treble nm="Sopran\nAlt"
V:2 treble 
V:3 bass nm="Tenor\nBass"
V:4 bass 
V:1
"^Frisch und bewegt"!f! D2 | G3 F G>B |!>(! B2 !breath!G2!>)! D2 | d3 B G>B | !breath!A4 E2 | %5
w: 1.~Der|Früh- ling naht mit|Brau- sen, er|rüs- tet sich zur|Tat, und|
w: 2.~Tu|ab die Win- ter-|sor- gen, emp-|fan- ge frisch den|Gast; er|
w: 3.~*~~Dir|ar- men Men- schen-|kin- de ist|wund und weh ums|Herz? Auf,|
w: 4.~~~~Und|wie die Vög- lein|lei- se an-|stim- men ih- ren|Chor, so|
 A3!<(! ^G A>!<)!B |!>(! B2 !breath!c2!>)! c2 |!<(! e3!<)! c!>(! B>!>)!d | c3 z/!<(! F/ A>c!<)! | %9
w: un- ter Sturm und|Sau- sen keimt|still die grü- ne|Saat; drum wach', er-|
w: fliegt wie jun- ger|Mor- gen, er|hält nicht lan- ge|Rast. Die Knos- pe|
w: spreng' ge- trost die|Rin- de, schau'|mu- tig früh- ling-|wärts! Es schmilzt das|
w: schall' auch dei- ne|Wei- se aus|tiefs- ter Brust her-|vor! ~Bist nicht ver-|
!>(! !^!e7/2 d/ d>B!>)! | A7/2!<(! F/ A>c!<)! |!>(! !^!e7/2 d/ d>B!>)! | A4 z2 | %13
w: wach', du Men- schen-|kind, dass dich der|Lenz nicht schla- fend|find'!|
w: schwillt, die Blu- me|blüht, die Stun- de|eilt, der Früh- ling|flieht.|
w: Eis, die Quel- le|rinnt, ~dir taut der|Schmerz und löst sich|lind.|
w: armt, bist nicht al-|lein, um- ringt von|Sang und Son- nen-|schein!|
!mf!!<(! !^!D2 G3 B!<)! | d6 |"^cresc." !^!G2 B3 d |!>(! !breath!g6!>)! |!mf!!>(! ^c2 c2 c2 | %18
w: Drum wach', er-|wach',|du Men- schen-|kind,|dass dich der|
w: Drum wach', er-|wach',|du Men- schen-|kind,|~dass dich der|
w: ~Es schmilzt das|Eis,|die Quel- le|rinnt,|~dir taut der|
w: **~~Bist nicht ver-|armt,|bist nicht al-|lein,|um- ringt von|
 d4!>)! B2 |!>(! (d2 G2) A2!>)! | B4 z2 |!f!!<(! A2 B2 c2!<)! |!>(! (d2!>)! c2) A2 | (G2 B2) A2 | %24
w: Lenz nicht|schla- * fend|find',|dass dich der|Lenz _ nicht|schla- * fend|
w: Lenz nicht|schla- * fend|find',|dass dich der|Lenz _ nicht|schla- * fend|
w: Schmerz und|löst _ sich|lind,|~dir taut der|Schmerz _ und|löst _ sich|
w: Sang und|Son- * nen|schein,|~um- ringt von|Sang _ und|Son- * nen-|
 !fermata!G4 |] %25
w: find'!|
w: find'!|
w: lind.|
w: schein!|
V:2
 D2 | D3 D D>G | G2 D2 D2 | G3 G D>G | F4 E2 | E3 E E>E | E2 E2 E2 | A3 E E>E | E3 x/ D/ F>A | %9
 c7/2 B/ G>G | F7/2 D/ F>A | c7/2 B/ G>G | F4 x2 | D2 D3 D | G6 | G2 G3 A | G6 | G2 A2 _B2 | %18
 (A2 F2) D2 | (G2 D2) F2 | G4 x2 | F2 G2 F2 | (=F2 E2) E2 | (D2 G2) F2 | G4 |] %25
V:3
!f!"^*  Von Str. 3 ab ein wenig langsamer" D2 | B,3 A, G,>D |!>(! D2 !breath!B,2!>)! D2 | %3
w: |||
w: |||
w: |||
w: |||
 D3 D B,>D | !breath!D4"^cresc." E,2 | C3!<(! B, A,>!<)!^G, |!>(! !^!^G,2 !breath!A,2!>)! A,2 | %7
w: ||||
w: ||||
w: ||||
w: ||||
!<(! C3!<)! A,!>(! ^G,>!>)!B, | A,3 z z2 | z3/2!>(! F,/ A,>B, D>D!>)! | D3 z z2 | %11
w: ||1.~er- wach', du Men- schen-|kind,|
w: ||2.~ja schwillt, die Blu- me|blüht,|
w: ||3.~das Eis, die Quel- le|rinnt,|
w: ||4.~ver- armt, bist nicht al-|lein,|
!>(! z3/2 F,/ A,>B, D>D!>)! | D4 z2 | %13
w: der Lenz nicht schla- fend|find'!|
w: ja eilt, der Früh- ling|flieht.|
w: der Schmerz und löst sich|lind.|
w: von Sang und Son- nen-|schein!|
!mf!"^**  Bei dieser Stelle wieder im anfänglichen Tempo"!<(! !^!B,2 B,3 G,!<)! | B,6 | %15
w: ||
w: ||
w: ||
w: ||
"^cresc." D2 D3 A, |!>(! !breath!B,6!>)! |!mf!!>(! _B,2 A,2 G,2 | !^!A,4!>)! B,2 | %19
w: ||||
w: ||||
w: ||||
w: ||||
!>(! (G,2 B,2) D2!>)! | D4 z2 |!f!!<(! D2 D2 D2!<)! |!>(! (B,2!>)! C2) C2 | (B,2 D2) C2 | %24
w: |||||
w: |||||
w: |||||
w: |||||
 !fermata!B,4 |] %25
w: |
w: |
w: |
w: |
V:4
 D,2 | G,3 D, B,,>D, | [G,,G,]2 G,2 D,2 | B,3 G, G,>[G,,G,] | D,4 E,2 | A,3 E, C,>E, | %6
 E,2 A,,2 A,2 | E,3 E, E,>E, | A,3 x x2 | x3/2 D,/ F,>G, B,>G, | D,3 x x2 | x3/2 D,/ F,>G, B,>G, | %12
 D,4 x2 | G,2 G,3 G,, | G,6 | B,2 G,3 F, | E,6 | E,2 E,2 E,2 | (F,2 D,2) G,2 | (B,,2 D,2) D,2 | %20
 G,4 x2 | C2 B,2 A,2 | (^G,2 A,2) C,2 | D,4 D,2 | G,,4 |] %25

